X:1
T:Sally in the Garden
N:From the playing of fiddlers George Crockett Sr. and son
N:George playing with Crockett Family Mountaineers.
N:The tune was the middle of a medley, with "Sourwood Mountain"
N:and "Sally Goodin'," recorded in Los Angeles, Nov. 1928, as "Medley
N:of Old-Time Dance Tunes Part II."
M:C|
L:1/8
R:Reel
D:Brunswick 291 (78 RPM). Crockett Family Mountaineers (1928)
D:Yazoo 2200, Crockett's Kentucky Mountaineers - Kentucky
D:Mountain Music, vol. 4 (2003)
D: https://www.slippery-hill.com/recording/sally-garden-0
Z:Transcribed by Andrew Kuntz
K:Ador
[M:6/4]A2A2 ABAG E2E2|[M:C|]c2B2B2E2|ABAG E2EF|G2G2E2E2|
ABAG E2c2-|[M:3/4]cBcd +slide+[e2e2]|[M:C|][e6e6]([ee][ed]|[e2e2])(cB A2)G2|ED C2 A,4:||
|:A2 AB c2cB|c2c(d [e2e2])[ee][ed] |[e2e2]([ee][de] c2)cB|c2cd edcB|
A2 AB c2cB|c2c(d [e2e2])[ee][ed] |[e2e2]([ee][de] [e2e2])dc|1 A2 G2 AGEG:|2 [M:6/4]A2 G2AEC2 A,4||

